brandFactory_export/3.Masa/Maletas carro _3Masa.svg

<?xml version="1.0" encoding="UTF-8"?>
<svg width="24px" height="24px" viewBox="0 0 24 24" version="1.1" xmlns="http://www.w3.org/2000/svg" xmlns:xlink="http://www.w3.org/1999/xlink">
    <title>3.Masa/Maletas carro _3Masa</title>
    <g id="Symbols" stroke="none" stroke-width="1" fill="none" fill-rule="evenodd">
        <g id="3.Masa/Maletas-carro-_3Masa" fill="#5CB615" fill-rule="nonzero">
            <path d="M9.34117647,2.61512605 L11.0655462,2.31596639 L11.3243697,3.97310924 C11.3546218,4.10420168 11.4218487,4.22521008 11.5260504,4.30588235 C11.6033613,4.36638655 11.7008403,4.39663866 11.805042,4.39663866 C11.8352941,4.39663866 11.8521008,4.39663866 11.8823529,4.38655462 L13.6168067,4.08403361 C13.8789916,4.04369748 14.0504202,3.78487395 14.0134454,3.51260504 L13.7445378,1.85546218 L15.4689076,1.55294118 L16.3462185,6.98823529 L10.205042,8.05378151 L9.34117647,2.61512605 L9.34117647,2.61512605 Z M16.6285714,11.4957983 C16.887395,11.4453782 17.0722689,11.1932773 17.0252101,10.9243697 L16.6285714,8.46386555 L19.1630252,8.0302521 L20.2420168,14.7831933 L11.5361345,16.2991597 L10.4571429,9.54621849 L13.3613445,9.03529412 L13.7546218,11.4857143 C13.7747899,11.6168067 13.8420168,11.7378151 13.9462185,11.8184874 C14.0235294,11.8789916 14.1310924,11.9092437 14.2252101,11.9092437 C14.2554622,11.9092437 14.2756303,11.9092437 14.302521,11.8991597 L16.6285714,11.4957983 Z M21.8453782,16.8504202 L12.6285714,18.4470588 C12.5512605,18.1747899 12.4638655,17.9260504 12.3596639,17.6840336 L20.5915966,16.2588235 C20.9277311,16.1983193 21.2268908,16 21.4319328,15.697479 C21.6537815,15.3747899 21.7411765,14.9647059 21.6840336,14.5512605 L20.594958,7.76134454 C20.5277311,7.35798319 20.3159664,6.99831933 20.0067227,6.76638655 C19.7176471,6.54789916 19.3714286,6.46386555 19.0352941,6.52436975 L17.7815126,6.74621849 L16.8739496,1.09915966 C16.8168067,0.766386555 16.6621849,0.477310924 16.4201681,0.275630252 C16.1579832,0.0571428571 15.8218487,-0.0336134454 15.4957983,0.0168067227 L8.84369748,1.1697479 C8.20840336,1.2907563 7.77478992,1.95294118 7.88907563,2.66554622 L8.82352941,8.50420168 C8.8605042,8.72268908 8.95798319,8.90756303 9.07226891,9.07563025 C9.00504202,9.29411765 8.98487395,9.52605042 9.02521008,9.77815126 L9.9697479,15.687395 C9.6907563,15.6268908 9.38151261,15.6067227 9.06554622,15.6168067 L6.91428571,2.22521008 C6.86722689,1.91260504 6.63529412,1.6605042 6.33613445,1.60336134 L2.87394958,0.931092437 C2.48739496,0.850420168 2.10084034,1.12268908 2.02352941,1.53277311 C1.95630252,1.94621849 2.21512605,2.33613445 2.60168067,2.40672269 L5.57310924,2.99159664 L7.63361345,15.8722689 C5.78151261,16.4840336 4.85714286,18.1109244 5.20672269,20.2722689 C5.39831933,21.4689076 5.89915966,22.4033613 6.67226891,22.9747899 C7.25042017,23.405042 7.96302521,23.6268908 8.76302521,23.6268908 C9.03193277,23.6268908 9.31092437,23.5966387 9.60336134,23.5462185 C11.6,23.1932773 12.7563025,21.8588235 12.8033613,19.9495798 L22.087395,18.3327731 C22.4840336,18.2722689 22.7428571,17.8823529 22.6756303,17.4689076 C22.6151261,17.0521008 22.2420168,16.7697479 21.8453782,16.8504202 Z" id="Maletas-carro-_3Masa"></path>
        </g>
    </g>
</svg>

<svg width="24" height="24" viewBox="0 0 24 24" xmlns="http://www.w3.org/2000/svg"><path d="M9.341 2.615l1.725-.299.258 1.657c.03.131.098.252.202.333.077.06.175.09.279.09.03 0 .047 0 .077-.01l1.735-.302c.262-.04.433-.3.396-.571l-.268-1.658 1.724-.302.877 5.435-6.141 1.066-.864-5.439zm7.288 8.88a.5.5 0 00.396-.57l-.396-2.461 2.534-.434 1.079 6.753-8.706 1.516-1.079-6.753 2.904-.51.394 2.45a.52.52 0 00.191.332.47.47 0 00.28.091c.03 0 .05 0 .077-.01l2.326-.403zm5.216 5.355l-9.216 1.597a6.165 6.165 0 00-.27-.763l8.233-1.425c.336-.06.635-.259.84-.562.222-.322.31-.732.252-1.146l-1.089-6.79a1.562 1.562 0 00-.588-.995 1.237 1.237 0 00-.972-.242l-1.253.222-.908-5.647a1.35 1.35 0 00-.454-.823 1.164 1.164 0 00-.924-.26L8.844 1.17c-.636.12-1.07.783-.955 1.496l.935 5.838c.037.219.134.404.248.572-.067.218-.087.45-.047.702l.945 5.91a3.754 3.754 0 00-.904-.071L6.914 2.225a.737.737 0 00-.578-.622L2.874.931c-.387-.08-.773.192-.85.602-.068.413.191.803.578.874l2.971.585 2.06 12.88c-1.851.612-2.776 2.239-2.426 4.4.191 1.197.692 2.131 1.465 2.703.578.43 1.291.652 2.091.652.269 0 .548-.03.84-.08 1.997-.354 3.153-1.688 3.2-3.597l9.284-1.617c.397-.06.656-.45.589-.864-.06-.417-.434-.7-.83-.619z" fill="#5CB615" fill-rule="nonzero"/></svg>
